X:1
T:Frumentius, 88.88.88
T:Frumentius, 88.88.88
T:William Speer Nickle, 1891
T:Public Domain Courtesy of the Cyber Hymnal™
C:William Speer Nickle, 1891
Z:Public Domain
Z:Courtesy of the Cyber Hymnal™
%%score ( 1 2 ) 3
L:1/8
Q:1/4=80
M:3/4
K:F
V:1 treble 
V:2 treble 
V:3 bass 
V:1
 C | [CF][CG] [FA]3 [FB] | [FA]>[EG] [EG]3 C | [EG][FA] [GB]3 [Ac] | [GB]>[FA] [FA]3 C | %5
 [CF][CG] [FA]3 [CF] | [CG][_EA] [DB]3 [FB] | [FA][EG] [Ec]3 [EB] | [FA][EG] F3 [FA] | %9
 [FA]>[EG] [EG]3 [GB] | [GB]>[FA] [FA]3 [CF] |!<(! [CG][_EA]!<)! [DB]3!>(! C | [FA]>!>)![EG] F3 |] %13
V:2
 C | x6 | x5 C | x6 | x5 C | x6 | x6 | x6 | x2 F3 x | x6 | x6 | x5 C | x2 F3 |] %13
V:3
 [F,A,] | [F,A,][F,B,] [F,C]3 [B,,D] | [C,C]>[C,C] [C,C]3 [C,C] | [C,C][C,C] [C,C]3 [C,C] | %4
 [F,C]>[F,C] [F,C]3 [F,A,] | [F,A,][F,B,] [F,C]3 [F,A,] | [E,C][F,C] [B,,B,]3 [B,,D] | %7
 [C,C][C,C] [C,G,]3 [C,C] | [C,C][C,B,] [F,A,]3 [F,C] | [C,C]>[C,C] [C,C]3 [C,C] | %10
 [F,C]>[F,C] [F,C]3 [F,A,] | [E,C][F,C] [B,,B,]3 [F,A,] | [C,C]>[C,B,] [F,,F,A,]3 |] %13

